!!!!SEGMENT:Asazuma.krn
!!!OTL:淺妻
!!!OPR:Eiga Banso Kyokusyu,jidai-geki,kouhen
!!!YOY:1928
!!!ONB:Kakutou
**kern
*clefG2
*k[f#]
*G:
*M2/4
=1
8BL
8dJ
8eL
8eJ
=2
8eL
8c
8B
8aJ
=3
8bL
8ddJ
8eeL
8eeJ
=4
8eeL
8cc
8ee
8ff#J
=5
8ggL
8gg
8gg
8ff#J
=6
8eeL
8ee
8ff#
8eeJ
=7
8ccL
8cc
8b
8aJ
=8
8r
8ee
8ff#L
8eeJ
=9
8ff#L
8eeJ
8.ccL
16eeJk
=10
16ff#LL
16eeJ
8ccJ
8bL
8aJ
=11
4f#
8.aL
16aJk
=12
4b
8eeL
8bJ
=13
8aL
8bJ
16ccLL
16b
16b
16aJJ
=14
8fnL
8eJ
8r
16b-XLL
16b-JJ
=15
*tremolo
8b-XL
8b-X
8b-X
8b-XJ
*Xtremolo
=16
8b-XL
8a
8g
8aJ
=17
8bnL
8gJ
4a
==
*-
!!!ENC: Yukiko Yoden
!!!END: 2023/06/11
